X:1
T:9 Lieder und Gesänge, Op.32
T:Wie bist du, meine Königin
T:9. Wie bist du, meine Königin
T:Johannes Brahms
T:Georg Friedrich Daumer, nach Hafis
T:9 Lieder und Gesänge, Op.32
T:Creative Commons copyright waiver (CC0 1.0 Universal) 
T:Creative Commons copyright waiver (CC0 1.0 Universal) 
T:Creative Commons copyright waiver (CC0 1.0 Universal) 
T:Creative Commons copyright waiver (CC0 1.0 Universal) 
C:Johannes Brahms
Z:Georg Friedric Daumer, nach Hafis
Z:Creative Commons copyright waiver (CC0 1.0 Universal)
Z:
L:1/8
Q:1/4=71
M:3/8
K:Eb
V:1 treble nm="Singstimme\nVoice"
V:1
"^Adagio" z3 | z3 | z3 | z3 | z3 | e d c | c3/2 B/ F/ G/ | A2 z | z/ F/ G A | B3/2 B/ c/ f/ | %10
w: |||||Wie bist du,|mei- ne Kö- ni-|gin,|durch  sanf- te|Gü- te won- ne-|
 (ed) z | _d B A | G3/2 e/ =d/ e/ | f3/2 e/ d/ c/ | c2 B | z3 | e2 c | G2 z | c2 D | E2 z | z3 | %21
w: voll! *|Du läch- le|nur Lenz- düf- te|wehn durch mein Ge-|mü- te||won- ne-|voll,|won- ne-|voll!||
 z3 | z3 | z3 | e d c | c3/2 B/ F/ G/ | A2 z | z/ F/ G A | B3/2 c/ f- | f/ e/ d z | _d B A | %31
w: |||Frisch auf ge-|blüh- ter Ro- sen|Glanz,|ver- gleich ich|ihn dem dei-|* ni- gen?|Ach, ü- ber|
 G3/2 e/ =d/ e/ | f3/2 e/ d/ c/ | c2 B | z3 | e2 c | G2 z | c2 D | E2 z | z3 | z3 | z3 | z3 | %43
w: al- les was da|blüht, ist dei- ne|Blü- te,||won- ne-|voll,|won- ne-|voll!|||||
 E F _G | B3/2 A/ E/ F/ | _G2 z | ^F ^G =A | =B3/2 B/ ^c/ ^f/ | =e^d z | =c =A =G | %50
w: Durch to- te|Wüs- ten wand- le|hin,|und grü- ne|Schat- ten brei- ten|sich, _|ob fürch- ter-|
 ^F3/2 F/ =A/ G/ | ^F2 _e- | e =d _A | A2 _G | z3 | _f2 _d | B2 z | e2 =A | B2 =D | E2 z | z3 | %61
w: li- che Schwü- le|dort ohn|_ En- de|brü- te,||won- ne-|voll,|won- ne-|won- ne-|voll.||
 z3 | z3 | z3 | e d c | c3/2 B/ F/ G/ | A2 z | F G A | B3/2 B/ c/ f/ | (ed) z | _d B A | %71
w: |||Lass mich ver-|gehn in dei- nem|Arm!|Es ist in|ihm ja selbst der|Tod, _|ob auch die|
 G3/2 e/ =d/ e/ | _f3/2 e/ _d/ _c/ | _c B z | e2 B | G2 z | e2 G | c2 D | E2 z | z3 | z3 |] %81
w: herb- ste To- des-|qual die Brust durch-|wü- te,|won- ne-|voll,|won- ne-|won- ne-|voll!|||

